X:1
T:Amours ont changé
T:Mahier
T:Source : 29 Chansons musicales à 4 parties---Paris---P.Attaignant---1530. Editor : André Vierendeels (02/01/18). Notes : Original clefs :  C1, C3, C4, F3 Original note values have been halved Editorial accidentals above the staff Square brackets indicate ligatures Dotted brackets indicate black notes
T:Amours ont changé
T:©
T:©
T:©
T:©
C:Mahier
Z:©
%%score [ 1 2 3 4 ]
L:1/8
Q:1/4=120
M:2/2
K:C
V:1 treble nm="Soprano" snm="S"
V:2 treble nm="Alto" snm="A"
V:3 treble-8 nm="Tenor" snm="T"
V:4 bass nm="Bass" snm="B"
V:1
 c2 cc B2 B2 | c2 A2 G4 | z4 c2 cc | B2 B2 c2 A2 | G4 z4 | z2 c2 c2 B2 | c4 z4 | z2 c2 c2 B2 | %8
w: A- mours ont chan- gé|de fa- çon|si dar- gent|n'en- ten- dent le|son,|re- cu- lez|vous,|re- cu- lez|
 c2 e4 d2- | d2 c4 B2 | c4 z2 c2 | B2 c2 z2 c2 | B2 c2 z2 c2 | B2 A4 G2 | A4 z4 | z4 A2 AA | %16
w: vous ar- rie-||re,- din|din din, din|din din cest|la _ fa-|çon,|qui veult mon-|
 B2 ^G2 A2 B2 | c2 c2 c2 c2 | B2 A4 G2 | A4 A2 AA | B2 G2 A2 B2 | c2 d4 B2 | c2 B2 z4 | z2 B4 G2 | %24
w: ter des- sus l'ar-|son et don- ner|tost ar- rie-|re, ne bail- lez|ron- deau ne chan-|son, car par|din din,|car par|
 A4 z2 G2 | z2 c2 z2 A2 | z2 A2 F2 G2 | A2 B2 G2 A2- | AG G4 F2 | G4 z4 | G4 B2 d2 | A2 c2 B4 | %32
w: din din|di di|gen- til _|_ _ _ _|* * * gar-|son,|on cho- qua|la bar- rie-|
 A2 z2 G2 B2 | d2 A2 c2 B2- | BA B2 A4 | z2 G2 B2 d2 | A2 c2 B2 d2- | dcBA c2 BA | G3 E FG A2- | %39
w: re, on cho-|qua la bar- rie-|* * * re,|on chqua la|bar- rie- * *|||
 AG G4 F2 | G8 |] %41
w: |re.|
V:2
 C2 CC D2 D2 | E2 F2 G4 | z2 G4 F2 | G2 GG E2 F2 | G4 z2 G2 | G2 F2 G4 | z4 z2 G2 | G2 F2 G4 | %8
w: A- mours ont chan- gé|de fa- çon|si d'ar-|gent n'en- ten- dent le|son, re-|cu- lez vous,|re-|cu- lez vous|
 A2 G3 F ED | E2 F2 G2 G2 | E2 G2 z2 G2 | z2 G2 z2 G2 | z2 G2 z2 G2 | G2 F2 E4 | z8 | z4 F2 FF | %16
w: ar- rie- * * *|* * re, din|din din din|din din|din gen-|til gar- son,||qui veult mon-|
 G2 E2 F2 G2 | F4 F2 FF | G2 F2 E4 | C4 z2 D2 | DD E2 C2 D2 | E2 F2 z4 | z4 z2 F2- | F2 D2 E4 | %24
w: ter des- susl'ar- son|et don- ner tost|ar- rie- *|re, ne|bail- lez chan- son ne|ron- deau|car|_ par din|
 C2 D2 z2 B,2 | z2 E2 z2 C2 | z2 F2 F2 E2 | E2 D2 E2 F2- | F2 E2 D4 | B,4 z2 C2 | E2 G2 D2 F2 | %31
w: din din din|di din|din di din|gen- til gar- *||son, on|cho- qua la bar-|
 E4 D4 | z8 | z4 C2 E2 | G2 D2 F2 E2- | ED E2 D2 z2 | C2 E2 G2 D2 | F4 E4- | E2 D4 D2 | E2 C2 D4 | %40
w: rie- re,||on cho-|qua la bar- rie-|* * * re,|on cho- qua la|bar- *|* * rie-||
"^#" D8 |] %41
w: re.|
V:3
 z8 | z4 c2 cc | d2 d2 e2 c2 | d4 z4 | c2 cc d2 d2 | e2 c2 d2 d2 | e2 c2 d4 | z4 z2 d2 | %8
w: |A- mours ont|chan- gé de fa-|çon|si dar- gent n'en- ten-|dent le son, re-|cu- lez vous,|re-|
 e2 c2 d3 c | B2 c2 d4 | c2 e2 d2 e2 | z2 e2 d2 e2 | z2 e2 z2 e2 | d2 c2 B4 | A2 AA B2 G2 | %15
w: cu- lez vous _|ar- rie- *|re, din din din|din din din|din cest|la fa- çon,|qui veult mon- ter des-|
 A2 B2 c4 | z8 | c4 c2 c2 | d2 c2 B4 | A8 | z8 | A2 AA B2 G2 | A2 B2 c2 z2 | d4 B2 c2 | %24
w: sus l'ar- son,||et don- ner|tost ar- rie-|re,||ne bail- lez ron- deau|ne chan- son,|car par din|
 A2 z2 B2 z2 | G2 z2 c2 z2 | A2 d4 c2- | c2 B2 c4 | cBAG A4 | G8 | z8 | z2 G2 B2 d2 | A2 c2 B4 | %33
w: din din|din di|gen- til _|_ _ _|gar- * * * *|son,||on cho- qua|la bar- rie-|
 A4 z4 | G2 B2 d2 A2 | c2 B4 A2 | z4 G2 B2 | d4 A2 c2- | c2 B4 A2 | cBAG A4 | G8 |] %41
w: re,|on cho- qua la|bar- rie- re,|on cho-|qua la bar|_ rie- *||re.|
V:4
 z8 | z4 C2 CC | B,2 B,2 C2 A,2 | G,4 z4 | C2 CC B,2 B,2 | C2 A,2 G,4 | z2 C2 C2 B,2 | C2 A,2 G,4 | %8
w: |A- mours ont|chan- gé de fa-|çon|si dar- gent n'en- ten-|dent le son,|re- cu- lez|vous ar- rie-|
 C,2 C2 C2 B,2 | G,2 A,2 G,4 | C,2 C2 B,2 C2 | z2 C2 B,2 C2 | z2 C2 z2 C2 | G,2 A,2 E,4 | %14
w: re, re- cu- lez|vous ar- rie-|re, din din din|din di din|din cest|la fa- çon,|
 F,2 F,F, G,2 E,2 | F,2 G,2 F,4 | z8 | F,4 A,2 A,2 | G,2 A,2 E,4 | F,4 D,4 | z8 | z2 D,2 D,D, E,2 | %22
w: qui veult mon- ter des-|sus l'ar- son,||et don- ner|tost ar- rie-|re, _||ne bail- lez ron-|
 C,2 D,2 E,2 F,2 | z2 G,4 E,2 | F,2 D,2 z2 E,2 | z2 C,2 z2 F,2 | z2 D,4 E,2 | F,2 G,2 C,2 F,2- | %28
w: deau ne chan- son,|car par|din din din|di din|gen- til|gar- * * *|
 F,2 G,2 D,4 | E,4 C,4 | z8 | C,2 E,2 G,2 D,2 | F,2 E,4 D,2- | D,4 z4 | z8 | C,2 E,2 G,2 D,2 | %36
w: |son, _||on cho- qua la|bar- rie- re,|_||on cho- qua la|
 F,2 E,4 D,2 | z4 z2 C,2 | E,2 G,2 D,2 F,2 | E,4 D,4 | G,8 |] %41
w: bar- rie- re,|on|cho- qua la bar-|rie- *|re.|

